Newaita-dark/apps/48/clamav.svg

<svg height="48pt" viewBox="0 0 48 48" width="48pt" xmlns="http://www.w3.org/2000/svg" xmlns:xlink="http://www.w3.org/1999/xlink"><linearGradient id="a"><stop offset="0" stop-opacity=".313725"/><stop offset=".222222" stop-opacity=".27451"/><stop offset="1" stop-opacity="0"/></linearGradient><radialGradient id="b" cx="450.908936" cy="189.579361" gradientTransform="matrix(.00000026 -.117199 -.210958 -.00000015 65.296304 95.392994)" gradientUnits="userSpaceOnUse" r="21.166656" xlink:href="#a"/><radialGradient id="c" cx="450.908936" cy="189.579361" gradientTransform="matrix(-.00000026 .117199 .210958 .00000015 -17.666755 -11.291223)" gradientUnits="userSpaceOnUse" r="21.166656" xlink:href="#a"/><radialGradient id="d" cx="450.908936" cy="189.579361" gradientTransform="matrix(-.00000026 -.117199 .210958 -.00000015 -17.666755 95.392994)" gradientUnits="userSpaceOnUse" r="21.166656" xlink:href="#a"/><radialGradient id="e" cx="450.908936" cy="189.579361" gradientTransform="matrix(.00000026 .117199 -.210958 .00000015 65.296302 -11.291224)" gradientUnits="userSpaceOnUse" r="21.166656" xlink:href="#a"/><linearGradient id="f" gradientTransform="matrix(.0200401 0 0 .093759 18.698079 20.158175)" gradientUnits="userSpaceOnUse" x1="255.323059" x2="255.323044" y1="233.5" y2="254.666656"><stop offset="0" stop-opacity=".27451"/><stop offset="1" stop-opacity="0"/></linearGradient><linearGradient id="g" gradientUnits="userSpaceOnUse" x1="169.333136" x2="169.333136" y1="95.91654118561" y2="-20.49999495395"><stop offset="0" stop-color="#e0e0e0"/><stop offset="1" stop-color="#eee"/></linearGradient><linearGradient id="h" gradientTransform="matrix(.866025 .5 -.5 .866025 643.238697 -197.414354)" gradientUnits="userSpaceOnUse" x1="680" x2="680" y1="1135.118164" y2="775.118103"><stop offset="0" stop-color="#424242"/><stop offset="1" stop-color="#616161"/></linearGradient><path d="m25.800781 42.050781h3.96875v-1.984375h-3.96875zm0 0" fill="url(#b)"/><path d="m21.832031 42.050781h-3.972656v1.984375h3.972656zm0 0" fill="url(#c)"/><path d="m21.832031 42.050781h-3.972656v-1.984375h3.972656zm0 0" fill="url(#d)"/><path d="m25.800781 42.050781h3.96875v1.984375h-3.96875zm0 0" fill="url(#e)"/><path d="m21.832031 42.050781h3.96875v1.984375h-3.96875zm0 0" fill="url(#f)"/><path d="m23.816406 4.34375c-4.933594 0-9.414062 1.875-12.765625 4.957031-2.007812-1.320312-3.8125-3.089843-5.386719-4.664062-.191406-.191407-.449218-.296875-.71875-.292969-.539062.007812-.976562.449219-.976562.992188 0 3.167968.011719 7.203124 2.136719 11.355468-.742188 2.027344-1.144531 4.21875-1.144531 6.507813 0 10.441406 8.410156 18.851562 18.855468 18.851562 10.441406 0 18.851563-8.410156 18.851563-18.851562 0-2.296875-.40625-4.492188-1.148438-6.523438 2.117188-4.144531 2.125-8.175781 2.125-11.339843 0-.542969-.433593-.984376-.976562-.992188-.269531-.003906-.527344.101562-.714844.292969-1.574219 1.570312-3.375 3.339843-5.378906 4.65625-3.351563-3.074219-7.828125-4.949219-12.757813-4.949219zm0 0" fill="#ef5350"/><path d="m23.816406 42.050781c-10.445312 0-18.855468-8.410156-18.855468-18.851562 0-.0625 0-.125 0-.1875.101562 10.359375 8.472656 18.667969 18.855468 18.667969 10.382813 0 18.753906-8.308594 18.851563-18.667969v.1875c0 10.441406-8.410157 18.851562-18.851563 18.851562zm0 0" fill-opacity=".196078"/><path d="m149.944018-23.601611c-19.998091 10.665648-33.538464 31.705306-33.538464 56.036315 0 35.163309 28.330628 63.493937 63.493936 63.493937 35.204972 0 63.5356-28.330628 63.5356-63.493937-40.621121 0-75.742767-22.664502-93.491072-56.036315zm0 0" fill="url(#g)" stroke="#212121" stroke-linecap="round" stroke-linejoin="round" stroke-width="3" transform="matrix(.093759 0 0 .093759 0 20.158175)"/><path d="m698.516022 868.578518c-3.779167 5.35382-7.243404 10.865105-10.550175 16.533855-47.239585 81.724483-30.548265 182.187336 34.799829 244.386124-9.447918-74.48108 4.251562-152.111466 44.562676-221.711123.31493-.787326.787326-1.417187 1.259722-2.204514-24.72205-9.920313-48.184378-22.360071-70.072052-37.004342zm0 0" fill="url(#h)" stroke="#212121" stroke-linecap="round" stroke-linejoin="round" stroke-width="11.338581" transform="scale(.0248071)"/><path d="m23.816406 4.34375c-7.585937 0-14.097656 4.433594-17.09375 10.859375 2.742188-5.015625 7.632813-8.679687 13.449219-9.773437 1.179687-.226563 2.398437-.347657 3.644531-.347657s2.460938.121094 3.640625.347657c5.816407 1.09375 10.707031 4.757812 13.449219 9.773437-2.996094-6.425781-9.507812-10.859375-17.089844-10.859375zm0 0" fill="#fff" fill-opacity=".392157"/><path d="m149.950859-23.601611c-19.998091 10.665649-33.538464 31.705306-33.538464 56.036316 0 35.163309 28.330628 63.493936 63.493936 63.493936 35.204972 0 63.493937-28.330627 63.493937-63.493936-40.579458 0-75.701104-22.664502-93.449409-56.036316zm0 0" fill="url(#g)" stroke="#212121" stroke-linecap="round" stroke-linejoin="round" stroke-width="3" transform="matrix(-.093759 0 0 .093759 47.629548 20.158175)"/><path d="m698.541877 868.578519c-3.779167 5.35382-7.243403 10.865105-10.550174 16.533855-47.239586 81.724484-30.548266 182.187336 34.642363 244.386124-9.447917-74.48108 4.409028-152.111466 44.562676-221.711123.472396-.787326.944791-1.417187 1.259722-2.204514-24.564585-9.920313-48.026912-22.36007-69.914587-37.004342zm0 0" fill="url(#h)" stroke="#212121" stroke-linecap="round" stroke-linejoin="round" stroke-width="11.338581" transform="matrix(-.0248071 0 0 .0248071 47.629548 0)"/><path d="m23.816406 4.203125c-4.929687 0-9.40625 1.859375-12.777344 4.917969-1.957031-1.300782-3.726562-3.035156-5.277343-4.585938-.214844-.214844-.511719-.335937-.816407-.332031-.617187.011719-1.117187.515625-1.117187 1.132813 0 3.15625.011719 7.199218 2.125 11.363281-.730469 2.027343-1.132813 4.214843-1.132813 6.5 0 10.519531 8.472657 18.992187 18.996094 18.992187 10.519532 0 18.992188-8.472656 18.992188-18.992187 0-2.292969-.402344-4.484375-1.140625-6.515625 2.109375-4.15625 2.117187-8.195313 2.117187-11.347656 0-.617188-.496094-1.121094-1.113281-1.132813-.308594-.003906-.601563.117187-.820313.332031-1.546874 1.550782-3.316406 3.28125-5.265624 4.582032-3.371094-3.054688-7.847657-4.914063-12.769532-4.914063zm0 .28125c4.894532 0 9.335938 1.859375 12.664063 4.914063l.078125.074218.09375-.058594c2.019531-1.332031 3.824218-3.105468 5.398437-4.679687.164063-.164063.386719-.253906.617188-.25.464843.007813.835937.386719.835937.851563 0 3.164062-.011718 7.164062-2.113281 11.277343l-.027344.054688.023438.054687c.738281 2.015625 1.140625 4.195313 1.140625 6.476563 0 10.367187-8.34375 18.710937-18.710938 18.710937-10.371094 0-18.714844-8.34375-18.714844-18.710937 0-2.273438.402344-4.449219 1.136719-6.460938l.019531-.054687-.027343-.054688c-2.109375-4.121094-2.121094-8.125-2.121094-11.292968 0-.464844.371094-.84375.839844-.851563.230469-.003906.453125.085937.613281.25 1.578125 1.574219 3.386719 3.355469 5.410156 4.683594l.089844.058593.082031-.074218c3.328125-3.054688 7.773438-4.917969 12.671875-4.917969zm0 0" fill="#212121"/></svg>

<?xml version="1.0" encoding="UTF-8"?>
<svg xmlns="http://www.w3.org/2000/svg" xmlns:xlink="http://www.w3.org/1999/xlink" width="48pt" height="48pt" viewBox="0 0 48 48" version="1.1">
<defs>
<radialGradient id="radial0" gradientUnits="userSpaceOnUse" cx="450.908936" cy="189.579361" fx="450.908936" fy="189.579361" r="21.166656" gradientTransform="matrix(0.000000261256,-0.117199,-0.210958,-0.000000152308,65.296304,95.392994)">
<stop offset="0" style="stop-color:rgb(0%,0%,0%);stop-opacity:0.313725;"/>
<stop offset="0.222222" style="stop-color:rgb(0%,0%,0%);stop-opacity:0.27451;"/>
<stop offset="1" style="stop-color:rgb(0%,0%,0%);stop-opacity:0;"/>
</radialGradient>
<radialGradient id="radial1" gradientUnits="userSpaceOnUse" cx="450.908936" cy="189.579361" fx="450.908936" fy="189.579361" r="21.166656" gradientTransform="matrix(-0.000000261256,0.117199,0.210958,0.000000152308,-17.666755,-11.291223)">
<stop offset="0" style="stop-color:rgb(0%,0%,0%);stop-opacity:0.313725;"/>
<stop offset="0.222222" style="stop-color:rgb(0%,0%,0%);stop-opacity:0.27451;"/>
<stop offset="1" style="stop-color:rgb(0%,0%,0%);stop-opacity:0;"/>
</radialGradient>
<radialGradient id="radial2" gradientUnits="userSpaceOnUse" cx="450.908936" cy="189.579361" fx="450.908936" fy="189.579361" r="21.166656" gradientTransform="matrix(-0.000000261256,-0.117199,0.210958,-0.000000152308,-17.666755,95.392994)">
<stop offset="0" style="stop-color:rgb(0%,0%,0%);stop-opacity:0.313725;"/>
<stop offset="0.222222" style="stop-color:rgb(0%,0%,0%);stop-opacity:0.27451;"/>
<stop offset="1" style="stop-color:rgb(0%,0%,0%);stop-opacity:0;"/>
</radialGradient>
<radialGradient id="radial3" gradientUnits="userSpaceOnUse" cx="450.908936" cy="189.579361" fx="450.908936" fy="189.579361" r="21.166656" gradientTransform="matrix(0.000000261256,0.117199,-0.210958,0.000000152308,65.296302,-11.291224)">
<stop offset="0" style="stop-color:rgb(0%,0%,0%);stop-opacity:0.313725;"/>
<stop offset="0.222222" style="stop-color:rgb(0%,0%,0%);stop-opacity:0.27451;"/>
<stop offset="1" style="stop-color:rgb(0%,0%,0%);stop-opacity:0;"/>
</radialGradient>
<linearGradient id="linear0" gradientUnits="userSpaceOnUse" x1="255.323059" y1="233.5" x2="255.323044" y2="254.666656" gradientTransform="matrix(0.0200401,0,0,0.093759,18.698079,20.158175)">
<stop offset="0" style="stop-color:rgb(0%,0%,0%);stop-opacity:0.27451;"/>
<stop offset="1" style="stop-color:rgb(0%,0%,0%);stop-opacity:0;"/>
</linearGradient>
<linearGradient id="linear1" gradientUnits="userSpaceOnUse" x1="600" y1="1135.118164" x2="600" y2="695.118103" gradientTransform="matrix(0.264583,0,0,0.264583,10.583336,-204.416428)">
<stop offset="0" style="stop-color:rgb(87.843137%,87.843137%,87.843137%);stop-opacity:1;"/>
<stop offset="1" style="stop-color:rgb(93.333333%,93.333333%,93.333333%);stop-opacity:1;"/>
</linearGradient>
<linearGradient id="linear2" gradientUnits="userSpaceOnUse" x1="680" y1="1135.118164" x2="680" y2="775.118103" gradientTransform="matrix(0.866025,0.5,-0.5,0.866025,643.238697,-197.414354)">
<stop offset="0" style="stop-color:rgb(25.882353%,25.882353%,25.882353%);stop-opacity:1;"/>
<stop offset="1" style="stop-color:rgb(38.039216%,38.039216%,38.039216%);stop-opacity:1;"/>
</linearGradient>
<linearGradient id="linear3" gradientUnits="userSpaceOnUse" x1="600" y1="1135.118164" x2="600" y2="695.118103" gradientTransform="matrix(0.264583,0,0,0.264583,10.583336,-204.416428)">
<stop offset="0" style="stop-color:rgb(87.843137%,87.843137%,87.843137%);stop-opacity:1;"/>
<stop offset="1" style="stop-color:rgb(93.333333%,93.333333%,93.333333%);stop-opacity:1;"/>
</linearGradient>
<linearGradient id="linear4" gradientUnits="userSpaceOnUse" x1="680" y1="1135.118164" x2="680" y2="775.118103" gradientTransform="matrix(0.866025,0.5,-0.5,0.866025,643.238697,-197.414354)">
<stop offset="0" style="stop-color:rgb(25.882353%,25.882353%,25.882353%);stop-opacity:1;"/>
<stop offset="1" style="stop-color:rgb(38.039216%,38.039216%,38.039216%);stop-opacity:1;"/>
</linearGradient>
</defs>
<g id="surface1">
<path style=" stroke:none;fill-rule:nonzero;fill:url(#radial0);" d="M 25.800781 42.050781 L 29.769531 42.050781 L 29.769531 40.066406 L 25.800781 40.066406 Z M 25.800781 42.050781 "/>
<path style=" stroke:none;fill-rule:nonzero;fill:url(#radial1);" d="M 21.832031 42.050781 L 17.859375 42.050781 L 17.859375 44.035156 L 21.832031 44.035156 Z M 21.832031 42.050781 "/>
<path style=" stroke:none;fill-rule:nonzero;fill:url(#radial2);" d="M 21.832031 42.050781 L 17.859375 42.050781 L 17.859375 40.066406 L 21.832031 40.066406 Z M 21.832031 42.050781 "/>
<path style=" stroke:none;fill-rule:nonzero;fill:url(#radial3);" d="M 25.800781 42.050781 L 29.769531 42.050781 L 29.769531 44.035156 L 25.800781 44.035156 Z M 25.800781 42.050781 "/>
<path style=" stroke:none;fill-rule:nonzero;fill:url(#linear0);" d="M 21.832031 42.050781 L 25.800781 42.050781 L 25.800781 44.035156 L 21.832031 44.035156 Z M 21.832031 42.050781 "/>
<path style=" stroke:none;fill-rule:nonzero;fill:rgb(93.72549%,32.54902%,31.372549%);fill-opacity:1;" d="M 23.816406 4.34375 C 18.882812 4.34375 14.402344 6.21875 11.050781 9.300781 C 9.042969 7.980469 7.238281 6.210938 5.664062 4.636719 C 5.472656 4.445312 5.214844 4.339844 4.945312 4.34375 C 4.40625 4.351562 3.96875 4.792969 3.96875 5.335938 C 3.96875 8.503906 3.980469 12.539062 6.105469 16.691406 C 5.363281 18.71875 4.960938 20.910156 4.960938 23.199219 C 4.960938 33.640625 13.371094 42.050781 23.816406 42.050781 C 34.257812 42.050781 42.667969 33.640625 42.667969 23.199219 C 42.667969 20.902344 42.261719 18.707031 41.519531 16.675781 C 43.636719 12.53125 43.644531 8.5 43.644531 5.335938 C 43.644531 4.792969 43.210938 4.351562 42.667969 4.34375 C 42.398438 4.339844 42.140625 4.445312 41.953125 4.636719 C 40.378906 6.207031 38.578125 7.976562 36.574219 9.292969 C 33.222656 6.21875 28.746094 4.34375 23.816406 4.34375 Z M 23.816406 4.34375 "/>
<path style=" stroke:none;fill-rule:nonzero;fill:rgb(0%,0%,0%);fill-opacity:0.196078;" d="M 23.816406 42.050781 C 13.371094 42.050781 4.960938 33.640625 4.960938 23.199219 C 4.960938 23.136719 4.960938 23.074219 4.960938 23.011719 C 5.0625 33.371094 13.433594 41.679688 23.816406 41.679688 C 34.199219 41.679688 42.570312 33.371094 42.667969 23.011719 C 42.667969 23.074219 42.667969 23.136719 42.667969 23.199219 C 42.667969 33.640625 34.257812 42.050781 23.816406 42.050781 Z M 23.816406 42.050781 "/>
<path style="fill-rule:nonzero;fill:url(#linear1);stroke-width:3;stroke-linecap:round;stroke-linejoin:round;stroke:rgb(12.941177%,12.941177%,12.941177%);stroke-opacity:1;stroke-miterlimit:4;" d="M 149.944018 -23.601611 C 129.945927 -12.935963 116.405554 8.103695 116.405554 32.434704 C 116.405554 67.598013 144.736182 95.928641 179.89949 95.928641 C 215.104462 95.928641 243.43509 67.598013 243.43509 32.434704 C 202.813969 32.434704 167.692323 9.770202 149.944018 -23.601611 Z M 149.944018 -23.601611 " transform="matrix(0.093759,0,0,0.093759,-0.00000031253,20.158175)"/>
<path style="fill-rule:nonzero;fill:url(#linear2);stroke-width:11.338581;stroke-linecap:round;stroke-linejoin:round;stroke:rgb(12.941177%,12.941177%,12.941177%);stroke-opacity:1;stroke-miterlimit:4;" d="M 698.516022 868.578518 C 694.736855 873.932338 691.272618 879.443623 687.965847 885.112373 C 640.726262 966.836856 657.417582 1067.299709 722.765676 1129.498497 C 713.317758 1055.017417 727.017238 977.387031 767.328352 907.787374 C 767.643282 907.000048 768.115678 906.370187 768.588074 905.58286 C 743.866024 895.662547 720.403696 883.222789 698.516022 868.578518 Z M 698.516022 868.578518 " transform="matrix(0.0248071,0,0,0.0248071,-0.00000031253,0)"/>
<path style=" stroke:none;fill-rule:nonzero;fill:rgb(100%,100%,100%);fill-opacity:0.392157;" d="M 23.816406 4.34375 C 16.230469 4.34375 9.71875 8.777344 6.722656 15.203125 C 9.464844 10.1875 14.355469 6.523438 20.171875 5.429688 C 21.351562 5.203125 22.570312 5.082031 23.816406 5.082031 C 25.0625 5.082031 26.277344 5.203125 27.457031 5.429688 C 33.273438 6.523438 38.164062 10.1875 40.90625 15.203125 C 37.910156 8.777344 31.398438 4.34375 23.816406 4.34375 Z M 23.816406 4.34375 "/>
<path style="fill-rule:nonzero;fill:url(#linear3);stroke-width:3;stroke-linecap:round;stroke-linejoin:round;stroke:rgb(12.941177%,12.941177%,12.941177%);stroke-opacity:1;stroke-miterlimit:4;" d="M 149.950859 -23.601611 C 129.952768 -12.935962 116.412395 8.103695 116.412395 32.434705 C 116.412395 67.598014 144.743023 95.928641 179.906331 95.928641 C 215.111303 95.928641 243.400268 67.598014 243.400268 32.434705 C 202.82081 32.434705 167.699164 9.770203 149.950859 -23.601611 Z M 149.950859 -23.601611 " transform="matrix(-0.093759,0,0,0.093759,47.629548,20.158175)"/>
<path style="fill-rule:nonzero;fill:url(#linear4);stroke-width:11.338581;stroke-linecap:round;stroke-linejoin:round;stroke:rgb(12.941177%,12.941177%,12.941177%);stroke-opacity:1;stroke-miterlimit:4;" d="M 698.541877 868.578519 C 694.76271 873.932339 691.298474 879.443624 687.991703 885.112374 C 640.752117 966.836858 657.443437 1067.29971 722.634066 1129.498498 C 713.186149 1055.017418 727.043094 977.387032 767.196742 907.787375 C 767.669138 907.000049 768.141533 906.370188 768.456464 905.582861 C 743.891879 895.662548 720.429552 883.222791 698.541877 868.578519 Z M 698.541877 868.578519 " transform="matrix(-0.0248071,0,0,0.0248071,47.629548,-0.000000031253)"/>
<path style=" stroke:none;fill-rule:nonzero;fill:rgb(12.941177%,12.941177%,12.941177%);fill-opacity:1;" d="M 23.816406 4.203125 C 18.886719 4.203125 14.410156 6.0625 11.039062 9.121094 C 9.082031 7.820312 7.3125 6.085938 5.761719 4.535156 C 5.546875 4.320312 5.25 4.199219 4.945312 4.203125 C 4.328125 4.214844 3.828125 4.71875 3.828125 5.335938 C 3.828125 8.492188 3.839844 12.535156 5.953125 16.699219 C 5.222656 18.726562 4.820312 20.914062 4.820312 23.199219 C 4.820312 33.71875 13.292969 42.191406 23.816406 42.191406 C 34.335938 42.191406 42.808594 33.71875 42.808594 23.199219 C 42.808594 20.90625 42.40625 18.714844 41.667969 16.683594 C 43.777344 12.527344 43.785156 8.488281 43.785156 5.335938 C 43.785156 4.71875 43.289062 4.214844 42.671875 4.203125 C 42.363281 4.199219 42.070312 4.320312 41.851562 4.535156 C 40.304688 6.085938 38.535156 7.816406 36.585938 9.117188 C 33.214844 6.0625 28.738281 4.203125 23.816406 4.203125 Z M 23.816406 4.484375 C 28.710938 4.484375 33.152344 6.34375 36.480469 9.398438 L 36.558594 9.472656 L 36.652344 9.414062 C 38.671875 8.082031 40.476562 6.308594 42.050781 4.734375 C 42.214844 4.570312 42.4375 4.480469 42.667969 4.484375 C 43.132812 4.492188 43.503906 4.871094 43.503906 5.335938 C 43.503906 8.5 43.492188 12.5 41.390625 16.613281 L 41.363281 16.667969 L 41.386719 16.722656 C 42.125 18.738281 42.527344 20.917969 42.527344 23.199219 C 42.527344 33.566406 34.183594 41.910156 23.816406 41.910156 C 13.445312 41.910156 5.101562 33.566406 5.101562 23.199219 C 5.101562 20.925781 5.503906 18.75 6.238281 16.738281 L 6.257812 16.683594 L 6.230469 16.628906 C 4.121094 12.507812 4.109375 8.503906 4.109375 5.335938 C 4.109375 4.871094 4.480469 4.492188 4.949219 4.484375 C 5.179688 4.480469 5.402344 4.570312 5.5625 4.734375 C 7.140625 6.308594 8.949219 8.089844 10.972656 9.417969 L 11.0625 9.476562 L 11.144531 9.402344 C 14.472656 6.347656 18.917969 4.484375 23.816406 4.484375 Z M 23.816406 4.484375 "/>
</g>
</svg>
